!!!COM: Debussy, (Achille-)Claude
!!!OTL: La Boîte à joujoux (The Toy Box), Ballet for Children
!!!OMV: Tableau 1: Le Magasin de jouets (The Toy Store)
!!!example: 185
!!!work: Deb-42
**kern	**kern	**dynam	**kern
*part2	*part2	*part2	*part1
*staff3	*staff2	*	*staff1
*I"Piano	*	*	*I"[Unnamed (treble staff)]
*I'Pno.	*	*	*
*clefF4	*clefG2	*	*clefG2
*k[b-e-]	*k[b-e-]	*	*k[b-e-]
*B-:	*B-:	*	*B-:
*M3/8	*M3/8	*	*M3/8
=213	=	=	=
[4.G-Xt	16b-	.	4.r
.	16r	.	.
.	(16b-LL	.	.
.	16ddJJ)	.	.
.	16r	.	.
.	(16dd	.	.
=214	=214	=214	=214
4.G-_	8.b-)	<	4.r
.	16r	.	.
.	8r	.	.
=215	=215	=215	=215
4.G-]	4.r	.	4.r
=216	=216	=216	=216
8.G-Xt	8.r	[	4.r
16r	8.GT	<	.
8r	.	.	.
=217	=217	=217	=217
8.A-XTL	8.r	.	4.r
8.AntJ	16r	.	.
.	16r	[	.
.	(16f	.	.
=218	=218	=218	=218
8B-' 8d	16dd)	ff	8bb-'L
.	16r	.	.
16r	(16ddLL	.	8bb-'
8c-X' 8e-	16b-JJ)	.	.
.	16r	.	8bb-'J
16r	(16b-	.	.
=219	=219	=219	=219
8cn' 8en	16f)	.	8ff'L
.	16r	.	.
16r	16f'LL	.	8ff'
8c-X' 8e-X	16f'JJ	.	.
.	16r	.	8ff'J
16r	(16f	.	.
=220	=220	=220	=220
8B-' 8d	16dd)	.	8bb-'L
.	16r	.	.
16r	(16ddLL	.	16bb-'L
8c-X' 8e-	16b-JJ)	.	16ddd'
.	16r	.	16bb-'
16r	(16b-	.	16ddd'JJ
=221	=221	=221	=221
!!linebreak:original
8cn' 8en	8.f)	.	8fff'L
16r	.	.	8fff'
8c-X' 8e-X	16r	.	.
.	16r	.	8fff'J
16r	16f	.	.
=222	=222	=222	=222
8B-' 8d	16fLL	.	8bb-'L
.	16b-	.	.
16r	16f	.	8bb-'
8c-X' 8e-X	16f	.	.
.	16b-	.	8bb-'J
16r	16fJJ	.	.
=223	=223	=223	=223
8cn' 8en	16f	.	8ff'L
.	16r	.	.
16r	16fLL	.	8ff'
8c-X' 8e-X	16fJJ	.	.
.	16r	.	8ff'J
16r	(16f	.	.
=224	=224	=224	=224
8B-' 8d	16b-)	.	8bb-'L
.	16r	.	.
16r	(16b-LL	.	8ddd'
8c-X' 8e-	16ddJJ)	.	.
.	16r	.	8ff'J
16r	(16dd	.	.
=225	=225	=225	=225
8cn' 8en	8.b-)	ff	8bb-'
16r	.	.	8r
*clefG2	*	*	*
8d-X' 8f	16r	.	.
.	8r	.	8r
16r	.	.	.
=226	=226	=226	=226
8dn' 8f#X	4.r	.	4.r
16r	.	.	.
8e-' 8g	.	.	.
16r	.	.	.
=227	=227	=227	=227
8en' 8g#X	8.r	.	4.r
16r	.	.	.
8f' 8a	16r	p	.
.	16r	.	.
16r	[16dd-X	.	.
==	==	==	==
*-	*-	*-	*-
!!!CDT: 1862/08/22-1918/03/25
!!!CBL: St Germain-en-Laye, France
!!!CDL: Paris, France
!!!CNT: French
!!!AGN: Stage; Ballet
!!!MCN: Inghelbrecht, Désiré-Émile
!!!MDT: 1919/12/10
!!!MGN: Orchestre du Théâtre du Vaudeville
!!!MLC: Paris, France
!!!MPD: 1919
!!!MPN:
!!!ODT: 1913
!!!PDT: 1920
!!!excerpt-start-measure: 213
!!!excerpt-end-measure: 527
!!!excerpt-start-time: 9:19
!!!excerpt-end-time: 9:30
!!!EEV: 2020/01/17
!!!system-decoration: s1{(s2,s3)}
!!!ONB: Converted from MusicXML on 2020/01/17
